X:893
T:Reel 893
M:4/4
K:Gmaj
L:1/8
G>B (3BAB cBAG|d>B (3BAB c2Bc|dBcB BGAF|D>F (3FEF AcBc|dcBG ADDC|D>G (3GFG cABc|dBcA BGAF|DEFG ABcA|g2gf edef|gfdc BcBA|Gggf gfeg| (3agf  (3gfe dcBA|gfge fefd|gfge fgaf|bgaf gfeg|dBcA BGAF|G2BG ABcA|Bdef gedc|B2BG AcAF|GBdG FGAc|B2dB cdec|Bdef gfed|Bdef efge|dB (3BAB AGFG|
